X:1
T:Flying Dutchman, The
T:Flying Dutchman, The
T:James Hill
C:James Hill
L:1/8
M:2/2
K:A
V:1 treble 
V:1
 (c>d) | (f>e)c>A (E>A)E>D | (C>A,)E>C (A>E)c>A | (d>B)f>d (c>A)e>c | (B>A)G>A [GB]2 c>d | %5
 e2 c>A (G>A)E>D | (C>A,)E>C (A>E)c>A | (B>d)f>d (c>B)A>G | [GB]2 A2 A2 :: (E>D) | %10
 (C>A,)E>C (A>E)c>A | (e>c)a>e (c>A)e>c | (d>B)f>d (c>A)e>c | (B>A)G>A [GB]2 c>d | %14
 e2 c>A (G>A)E>D | (C>A,)E>c (A>E)c>A | (B>d)f>d (c>B)A>G | B2 A2 A2 :| %18

